X:1

T:White Star Reel

M:2/4

L:1/8

R:Reel

S:Ryan’s Mammoth Collection (1883)

Z:AK/Fiddler’s Companion

K:G

(3D/D/D/(E/D/) G/B/G/B/ | A/A/G/A/ B/G/c/G/ | E/c/G/c/ B/G/d/B/ | A/d/B/G/ A/G/E/G/ |

(3D/D/D/(E/D/) G/B/G/B/ | A/A/G/A/ B/G/c/G/ | E/c/G/c/ B/G/d/B/ |1 A/G/F/A/ .G(E/D/) :|2

A/G/F/A/ Gz |: G/G/g/G/ G/g/G/g/ | G/A/B/G/ A/G/E/D/ | (3c/c/c/(A/c/) B/G/d/B/ | A/d/B/G/ A/G/E/G/ |

G/G/g/G/ G/g/G/g/ | G/A/B/G/ A/G/E/D/ | (3c/c/c/(A/c/) B/G/d/B/ | A/G/F/A/ Gz :|

 


WHITE SWAN [1], THE. American, Waltz. D Major. Standard tuning. AA'B. Source for notated version: Ruthie Dornfeld [Phillips]. Phillips (Traditional American Fiddle Tunes), vol. 2, 1995; pg. 327.

 

WHITE SWAN [2], THE.  AKA and see “Heather Island.” Scottish, Air.

 

WHITE WINGS [1]. Scottish, Country Dance Tune (6/8 time). D Major ('A' part) & A Major ('B' part). Standard tuning. AABB. Kerr (Merry Melodies), vol. 3; No. 398, pg. 44.

